assets/icons/list-gold.svg

<svg width="80" height="90" viewBox="0 0 80 90" fill="none" xmlns="http://www.w3.org/2000/svg">
<path d="M4 8.00529C6.20914 8.00529 8 6.21325 8 4.00265C8 1.79204 6.20914 0 4 0C1.79086 0 0 1.79204 0 4.00265C0 6.21325 1.79086 8.00529 4 8.00529Z" fill="#FFCB8F"/>
<path d="M76 8.00529H26C23.79 8.00529 22 6.21411 22 4.00265C22 1.79118 23.79 0 26 0H76C78.21 0 80 1.79118 80 4.00265C80 6.21411 78.21 8.00529 76 8.00529Z" fill="url(#paint0_linear_5749_40754)"/>
<path d="M4 90C6.20914 90 8 88.2079 8 85.9974C8 83.7868 6.20914 81.9947 4 81.9947C1.79086 81.9947 0 83.7868 0 85.9974C0 88.2079 1.79086 90 4 90Z" fill="#FFCB8F"/>
<path d="M76 90H26C23.79 90 22 88.2088 22 85.9974C22 83.7859 23.79 81.9947 26 81.9947H76C78.21 81.9947 80 83.7859 80 85.9974C80 88.2088 78.21 90 76 90Z" fill="url(#paint1_linear_5749_40754)"/>
<path d="M4 62.6714C6.20914 62.6714 8 60.8793 8 58.6687C8 56.4581 6.20914 54.6661 4 54.6661C1.79086 54.6661 0 56.4581 0 58.6687C0 60.8793 1.79086 62.6714 4 62.6714Z" fill="#FFCB8F"/>
<path d="M76 62.6714H26C23.79 62.6714 22 60.8802 22 58.6687C22 56.4573 23.79 54.6661 26 54.6661H76C78.21 54.6661 80 56.4573 80 58.6687C80 60.8802 78.21 62.6714 76 62.6714Z" fill="url(#paint2_linear_5749_40754)"/>
<path d="M4 35.3329C6.20914 35.3329 8 33.5409 8 31.3303C8 29.1197 6.20914 27.3276 4 27.3276C1.79086 27.3276 0 29.1197 0 31.3303C0 33.5409 1.79086 35.3329 4 35.3329Z" fill="#FFCB8F"/>
<path d="M76 35.3329H26C23.79 35.3329 22 33.5417 22 31.3303C22 29.1188 23.79 27.3276 26 27.3276H76C78.21 27.3276 80 29.1188 80 31.3303C80 33.5417 78.21 35.3329 76 35.3329Z" fill="url(#paint3_linear_5749_40754)"/>
<defs>
<linearGradient id="paint0_linear_5749_40754" x1="0" y1="45" x2="80" y2="45" gradientUnits="userSpaceOnUse">
<stop stop-color="#FFCB8F"/>
<stop offset="1" stop-color="#FFCB8F" stop-opacity="0"/>
</linearGradient>
<linearGradient id="paint1_linear_5749_40754" x1="0" y1="45" x2="80" y2="45" gradientUnits="userSpaceOnUse">
<stop stop-color="#FFCB8F" stop-opacity="0"/>
<stop offset="1" stop-color="#FFCB8F"/>
</linearGradient>
<linearGradient id="paint2_linear_5749_40754" x1="0" y1="49.1636" x2="80" y2="49.1636" gradientUnits="userSpaceOnUse">
<stop stop-color="#FFCB8F"/>
<stop offset="1" stop-color="#FFCB8F" stop-opacity="0"/>
</linearGradient>
<linearGradient id="paint3_linear_5749_40754" x1="0" y1="31.3303" x2="1" y2="31.3303" gradientUnits="userSpaceOnUse">
<stop stop-color="#FFCB8F" stop-opacity="0"/>
<stop offset="1" stop-color="#FFCB8F"/>
</linearGradient>
</defs>
</svg>

<svg width="80" height="90" fill="none" xmlns="http://www.w3.org/2000/svg"><path d="M4 8.005c2.21 0 4-1.792 4-4.002C8 1.792 6.21 0 4 0S0 1.792 0 4.003c0 2.21 1.79 4.002 4 4.002z" fill="#FFCB8F"/><path d="M76 8.005H26a4 4 0 0 1-4-4.002A4 4 0 0 1 26 0h50a4 4 0 0 1 4 4.003 4 4 0 0 1-4 4.002z" fill="url(#a)"/><path d="M4 90c2.21 0 4-1.792 4-4.003 0-2.21-1.79-4.002-4-4.002s-4 1.792-4 4.002S1.79 90 4 90z" fill="#FFCB8F"/><path d="M76 90H26a4 4 0 0 1-4-4.003 4 4 0 0 1 4-4.002h50a4 4 0 0 1 4 4.002A4 4 0 0 1 76 90z" fill="url(#b)"/><path d="M4 62.671c2.21 0 4-1.792 4-4.002s-1.79-4.003-4-4.003-4 1.792-4 4.003c0 2.21 1.79 4.002 4 4.002z" fill="#FFCB8F"/><path d="M76 62.671H26a4 4 0 0 1-4-4.002 4 4 0 0 1 4-4.003h50a4 4 0 0 1 4 4.003 4 4 0 0 1-4 4.002z" fill="url(#c)"/><path d="M4 35.333c2.21 0 4-1.792 4-4.003 0-2.21-1.79-4.002-4-4.002S0 29.12 0 31.33s1.79 4.003 4 4.003z" fill="#FFCB8F"/><path d="M76 35.333H26a4 4 0 0 1-4-4.003 4 4 0 0 1 4-4.002h50a4 4 0 0 1 4 4.002 4 4 0 0 1-4 4.003z" fill="url(#d)"/><defs><linearGradient id="a" x1="0" y1="45" x2="80" y2="45" gradientUnits="userSpaceOnUse"><stop stop-color="#FFCB8F"/><stop offset="1" stop-color="#FFCB8F" stop-opacity="0"/></linearGradient><linearGradient id="b" x1="0" y1="45" x2="80" y2="45" gradientUnits="userSpaceOnUse"><stop stop-color="#FFCB8F" stop-opacity="0"/><stop offset="1" stop-color="#FFCB8F"/></linearGradient><linearGradient id="c" x1="0" y1="49.164" x2="80" y2="49.164" gradientUnits="userSpaceOnUse"><stop stop-color="#FFCB8F"/><stop offset="1" stop-color="#FFCB8F" stop-opacity="0"/></linearGradient><linearGradient id="d" x1="0" y1="31.33" x2="1" y2="31.33" gradientUnits="userSpaceOnUse"><stop stop-color="#FFCB8F" stop-opacity="0"/><stop offset="1" stop-color="#FFCB8F"/></linearGradient></defs></svg>
